public/images/shop_amazon.svg

<!DOCTYPE svg PUBLIC "-//W3C//DTD SVG 1.1//EN" "http://www.w3.org/Graphics/SVG/1.1/DTD/svg11.dtd">
<!-- Uploaded to: SVG Repo, www.svgrepo.com, Transformed by: SVG Repo Mixer Tools -->
<svg fill="#065C47" width="800px" height="800px" viewBox="0 0 24 24" xmlns="http://www.w3.org/2000/svg" stroke="#065C47">
<g id="SVGRepo_bgCarrier" stroke-width="0"/>
<g id="SVGRepo_tracerCarrier" stroke-linecap="round" stroke-linejoin="round"/>
<g id="SVGRepo_iconCarrier"> <path d="M15.93 17.09C15.75 17.25 15.5 17.26 15.3 17.15C14.41 16.41 14.25 16.07 13.76 15.36C12.29 16.86 11.25 17.31 9.34003 17.31C7.09003 17.31 5.33003 15.92 5.33003 13.14C5.33003 10.96 6.50003 9.5 8.19003 8.76C9.65003 8.12 11.68 8 13.23 7.83V7.5C13.23 6.84 13.28 6.09 12.9 5.54C12.58 5.05 11.95 4.84 11.4 4.84C10.38 4.84 9.47003 5.37 9.25003 6.45C9.20003 6.69 9.00003 6.93 8.78003 6.94L6.18003 6.66C5.96003 6.61 5.72003 6.44 5.78003 6.1C6.38003 2.95 9.23003 2 11.78 2C13.08 2 14.78 2.35 15.81 3.33C17.11 4.55 17 6.18 17 7.95V12.12C17 13.37 17.5 13.93 18 14.6C18.17 14.85 18.21 15.14 18 15.31L15.94 17.09H15.93ZM13.23 10.56V10C11.29 10 9.24003 10.39 9.24003 12.67C9.24003 13.83 9.85003 14.62 10.87 14.62C11.63 14.62 12.3 14.15 12.73 13.4C13.25 12.47 13.23 11.6 13.23 10.56ZM20.16 19.54C18 21.14 14.82 22 12.1 22C8.29003 22 4.85003 20.59 2.25003 18.24C2.05003 18.06 2.23003 17.81 2.50003 17.95C5.28003 19.58 8.75003 20.56 12.33 20.56C14.74 20.56 17.4 20.06 19.84 19.03C20.21 18.87 20.5 19.27 20.16 19.54ZM21.07 18.5C20.79 18.14 19.22 18.33 18.5 18.42C18.31 18.44 18.28 18.26 18.47 18.12C19.71 17.24 21.76 17.5 22 17.79C22.24 18.09 21.93 20.14 20.76 21.11C20.58 21.27 20.41 21.18 20.5 21C20.76 20.33 21.35 18.86 21.07 18.5Z"/> </g>
</svg>

<!DOCTYPE svg PUBLIC "-//W3C//DTD SVG 1.1//EN" "http://www.w3.org/Graphics/SVG/1.1/DTD/svg11.dtd">
<!-- Uploaded to: SVG Repo, www.svgrepo.com, Transformed by: SVG Repo Mixer Tools -->
<svg width="800px" height="800px" viewBox="0 0 24 24" xmlns="http://www.w3.org/2000/svg" fill="#012E2A">
<g id="SVGRepo_bgCarrier" stroke-width="0"/>
<g id="SVGRepo_tracerCarrier" stroke-linecap="round" stroke-linejoin="round"/>
<g id="SVGRepo_iconCarrier"> <title>amazon</title> <rect width="24" height="24" fill="none"/> <path d="M15.93,17.09a.54.54,0,0,1-.63.06,6.55,6.55,0,0,1-1.54-1.79,5.31,5.31,0,0,1-4.42,1.95,3.8,3.8,0,0,1-4-4.17A4.55,4.55,0,0,1,8.19,8.76a18.39,18.39,0,0,1,5-.93V7.5a3.42,3.42,0,0,0-.33-2,1.79,1.79,0,0,0-1.5-.7A2,2,0,0,0,9.25,6.45a.6.6,0,0,1-.47.49l-2.6-.28a.47.47,0,0,1-.4-.56C6.38,3,9.23,2,11.78,2a6.1,6.1,0,0,1,4,1.33C17.11,4.55,17,6.18,17,8v4.17a3.6,3.6,0,0,0,1,2.48c.17.25.21.54,0,.71l-2.06,1.78h0m-2.7-6.53V10c-1.94,0-4,.39-4,2.67,0,1.16.61,1.95,1.63,1.95a2.19,2.19,0,0,0,1.86-1.22,5.32,5.32,0,0,0,.5-2.84m6.93,9A14.29,14.29,0,0,1,12.1,22a14.59,14.59,0,0,1-9.85-3.76c-.2-.18,0-.43.25-.29a19.68,19.68,0,0,0,9.83,2.61A19.69,19.69,0,0,0,19.84,19c.37-.16.66.24.32.51m.91-1c-.28-.36-1.85-.17-2.57-.08-.19,0-.22-.16,0-.3A3.92,3.92,0,0,1,22,17.79a3.86,3.86,0,0,1-1.24,3.32c-.18.16-.35.07-.26-.11C20.76,20.33,21.35,18.86,21.07,18.5Z"/> </g>
</svg>
